src/lib/packages/icons/src/assets/filled/user-check.svg

<svg width="24" height="24" viewBox="0 0 24 24" fill="none" xmlns="http://www.w3.org/2000/svg">
<path d="M21.53 8.89197L18.197 12.225C18.051 12.371 17.859 12.4449 17.667 12.4449C17.475 12.4449 17.283 12.372 17.137 12.225L15.47 10.558C15.177 10.266 15.177 9.78995 15.47 9.49695C15.763 9.20395 16.238 9.20395 16.531 9.49695L17.668 10.6331L20.4709 7.82996C20.7639 7.53696 21.239 7.53696 21.532 7.82996C21.825 8.12296 21.823 8.59897 21.53 8.89197ZM10.009 10.5C12.215 10.5 14.009 8.706 14.009 6.5C14.009 4.294 12.215 2.5 10.009 2.5C7.80303 2.5 6.00903 4.294 6.00903 6.5C6.00903 8.706 7.80303 10.5 10.009 10.5ZM12 12.5H8C3.94 12.5 2.5 15.473 2.5 18.019C2.5 20.296 3.71105 21.5 6.00305 21.5H13.9969C16.2889 21.5 17.5 20.296 17.5 18.019C17.5 15.473 16.06 12.5 12 12.5Z" fill="currentColor"/>
</svg>

<svg xmlns="http://www.w3.org/2000/svg" width="24" height="24" fill="none"><path fill="currentColor" d="m21.53 8.892-3.333 3.333a.748.748 0 0 1-1.06 0l-1.667-1.667a.75.75 0 0 1 1.061-1.061l1.137 1.136 2.803-2.803a.75.75 0 1 1 1.059 1.062ZM10.009 10.5c2.206 0 4-1.794 4-4s-1.794-4-4-4-4 1.794-4 4 1.794 4 4 4Zm1.991 2H8c-4.06 0-5.5 2.973-5.5 5.519 0 2.277 1.211 3.481 3.503 3.481h7.994c2.292 0 3.503-1.204 3.503-3.481 0-2.546-1.44-5.519-5.5-5.519Z"/></svg>
